X:1
T:Title
%%score { ( 1 3 ) | ( 2 4 ) }
L:1/8
Q:1/4=100
M:6/8
K:Db
V:1 treble nm="Grand Piano"
V:3 treble 
V:2 bass 
V:4 bass 
V:1
 F2 G G2 F | [A,F]E[B,CG] [B,CG]2 [A,CF] | C-[CE][B,CG] [B,CG]2 [A,CF] | [A,DF]3 .[A,DF]3 | %4
w: J.~Offenbach * * *||||
 [A,DF]2 [B,DG] [B,DG]2 [A,DF] | C-[CE][B,G] [B,CG]2 [A,CF] | C-[CE][B,CG] [B,CG]2 [A,CF] | F6 | %8
w: ||||
 A2 B B2 [DAc] | [CAc]2 [Bd] [Bd]2 [CAc] | [CAc]2 [CGB] [CGB]2 [CFA] | [FA]3 [FA]3 | %12
w: ||||
 A2 B B2 [DAc] | [CAc]2 [Bd] [Bd]2 [CAc] | [CAc]2 [CGB] [CGB]2 [CFA] | [FA]6 | A3- AcB | A6 | %18
w: ||||||
 A3- AcB | A6 | A3 A3 |[M:15/16] A3 [Acea]3/2- [Acea]3 |[M:3/4] F2 G G2 F | %23
w: |||||
 C-[CE] [B,CG] [B,CG]2 [A,CF] | C-[CE] [B,CG] [B,CG]2 [A,DF] | [A,DF]6 | %26
w: |||
 [A,DF]2 [B,DG] [B,DG]2 [A,DF] | C-[CE] [B,CG] [B,CG]2 [A,CF] | C-[CE] [B,CG] [B,CG]2 [A,CF] | %29
w: |||
 [_CA]6 | EE FG AB | A6 | AA Bc de | f3- [Af]3 | fe [Gd]c z [EGB] | A4- AB | c4- cc | [Fd]6 |] %38
w: |||||||||
V:2
 [D,A,D]2 [D,B,D] [D,B,D]2 [D,A,D] | z G,A,, A,,2 A,, | z G,A,, A,,2 A,, | D,3 .D,3 | %4
 D,2 D, D,2 D, | z G,A,, A,,2 A,, | z G,A,, A,,2 A,, | [D,A,D]6 | %8
 [D,F,A,D]2 [D,F,A,D] [D,F,A,D]2 [D,F,A,] | [E,G,A,]2 [E,G,A,C] [E,G,A,C]2 [E,G,A,] | %10
 [E,G,A,]2 [E,G,A,] [E,G,A,]2 [E,G,A,] | [D,F,A,D]2 [D,F,] [D,F,A,D]2 [D,F,A,] | %12
 [D,F,A,D]2 [D,F,A,D] [D,F,A,D]2 [D,F,A,] | [E,G,A,]2 [E,G,A,C] [E,G,A,C]2 [E,G,A,] | %14
 [E,G,A,]2 [E,G,A,] [E,G,A,]2 [E,G,A,] | [D,F,A,D]2 [D,F,A,] [D,F,A,]2 [D,F,A,] | [F,B,=D]6 | %17
 [G,A,CE]6 | [F,B,=D]6 | [G,A,CE]6 | A,3 A,3 |[M:15/16][K:treble] [A,CG]3 [A,CEG]3/2- [A,CEG]3 | %22
[M:3/4][K:bass] [D,A,D]2 [D,B,D] [D,B,D]2 [D,A,D] | z G, A,, A,,2 A,, | z G, A,, A,,2 A,, | D,6 | %26
 D,2 D, D,2 D, | z G, A,, A,,2 A,, | z G, A,, A,,2 A,, | [=D,F,]6 | [E,G,B,]6 | [F,A,D]6 | %32
 GG GG GG | [=D,F,A,_C]6 | [E,B,]2 .[E,B,]2[K:treble] dE, | [A,DF]4- [A,DF][A,DF] | %36
 [A,EG]4- [A,EG][A,EG] | [D,A,D]6 |] %38
V:3
 x6 | .C3 z3 | .[A,F]3 z3 | x6 | x6 | .[A,F]3 z3 | .[A,F]3 z3 | x6 | x6 | x6 | x6 | z2 [A,D] z2 D | %12
 x6 | x6 | x6 | z2 D D2 D | x6 | x6 | x6 | x6 | x6 |[M:15/16] x15/2 |[M:3/4] x6 | .[A,F]2 z2 z2 | %24
 .[A,F]2 z2 z2 | x6 | x6 | .[A,F]2 z2 z2 | .[A,F]2 z2 z2 | x6 | x6 | x6 | x6 | F4 z2 | %34
 G2 z .[EG]3 | x6 | x6 | x6 |] %38
V:4
 x6 | .A,,3 z3 | .A,,3 z3 | x6 | x6 | .A,,3 z3 | .A,,3 z3 | x6 | x6 | x6 | x6 | x6 | x6 | x6 | x6 | %15
 x6 | x6 | x6 | x6 | x6 | x6 |[M:15/16][K:treble] x15/2 |[M:3/4][K:bass] x6 | A,,2 z2 z2 | %24
 A,,2 z2 z2 | x6 | x6 | A,,2 z2 z2 | G,,2 z2 z2 | x6 | x6 | x6 | [A,C]6 | x6 | %34
 z2 z .E,3[K:treble] | x6 | x6 | x6 |] %38

